X:1
T:Korea, 87.87 D
T:Korea, 87.87 D
T:Korean Carol
T:Public Domain Courtesy of the Cyber Hymnal™
C:Korean Carol
Z:Public Domain
Z:Courtesy of the Cyber Hymnal™
%%score ( 1 2 ) 3
L:1/8
Q:1/4=95
M:2/4
K:C
V:1 treble 
V:2 treble 
V:3 bass 
V:1
 EF GE | DE FD | EF GE | FF D2 | EF GE | AB cA | GG DF | [CE][B,D] C2 | [B,D]>[CE] [DF][B,D] | %9
 [CE][DF] [EG][CE] | D>E [CF][G,D] | EF G2 | A>B x2 | cA | GG FE | G>G D[DF] | [CE][B,D] C2 |] %17
V:2
 C4 | C2 B,2 | C2 D2 | C2 D2 | C4 | C4 | B,2 D2 | x2 C2 | x4 | x4 | B,2 x2 | C4 | C4 | x2 | C4 | %15
 B,3 x | x2 C2 |] %17
V:3
 C,2 E,2 | G,2 G,,2 | C,2 B,,2 | A,,2 B,,2 | C,2 E,2 | F,2 F,,2 | G,,2 B,,2 | C,G,, C,,2 | G,,4- | %9
 G,,4- | G,,2 A,,B,, | C,D, (E,C,) | F,,2 x2 | F,2 | E,2 A,2 | G,3 B,, | C,G,, C,,2 |] %17

